X:132
T:The Corn is Ripe
C:Richard Darsie (C) 1992
M:6/8
L:1/8
K:C
E|"Am"A2 A ABA|"Em"GEE E2 E|"Am"A2 A "G"GAB|"C"cBc "Dm"def|"Am"eAA ABA|
"Em"GEE EGE|"Dm"DEF "Em"EAG|"Am"A3 A2:||:e|"Am"a2 e ede|"Dm"fed "Am"e2 e|
a2 a "Em"gab|"Am"age "G"dcd|"Am"e2 e "F"a2 a|\
"C"g2 g "Am"c2 c|"Dm"def "Am"edc|"Em"BAB "Am"A2:|
